X:1
T: Pasadena Prom
C:
R:Strathspey
Q: 128
K:D
M:4/4
L:1/16
A3G|:F3A d3e f3e d3c|((3d2f2e2) ((3d2c2B2) A4 d3c|B3^A B3c d3B e3d|c4 A4 A4 A3G|
F3A d3e f3e d3c|((3d2f2e2) ((3d2c2B2) A4 d3c|B3e g3b ((3a2g2f2) ((3e2d2c2)|e4 d4 d4:|
c3d|e3^d e3f e3c A3c|d3e f3g a4 g3f|e3B e3d c3B A3^G|A12 c3d|
e3^d e3f e3c A3c|d3e f3g a4 d3c|B3G e3d c3A B3c|d12 c3d|
e4 e4 c3B c3A|d3e f3g ((3a2b2a2) g3f|e3B e3d c3B A3^G|A12|
d3c|B3G B3d A3F A3d|G3E A3c d3A F3D|E4 e3f g3e B3c|d12||
"Alternate ending"((3A2B2c2)|d4 f4 g3f e3d|c4 e4 f3e d3c|B3c d3B c3d e3c|d12||
